packages/foundations/assets/icons/functional/images/devices/mobile_phone_16.svg

<svg width="16" height="16" viewBox="0 0 16 16" fill="none" xmlns="http://www.w3.org/2000/svg">
<g clip-path="url(#clip0_185_728)">
<path fill-rule="evenodd" clip-rule="evenodd" d="M10.7031 1.6C11.4219 1.6 12 2.1932 12 2.9112V13.0888C12 13.8068 11.4219 14.4 10.7031 14.4H5.29687C4.57809 14.4 4 13.8068 4 13.0888V2.9112C4 2.1932 4.57809 1.6 5.29687 1.6H10.7031ZM6.40416 3.2H5.59372V12.8H10.3937V3.2H9.58329V4.01176H6.40416V3.2ZM7.19608 12.0039V10.4039H8.79608V12.0039H7.19608Z" fill="#1A1C1F"/>
</g>
<defs>
<clipPath id="clip0_185_728">
<rect width="16" height="16" fill="white"/>
</clipPath>
</defs>
</svg>

<svg xmlns="http://www.w3.org/2000/svg" width="16" height="16" fill="none"><g clip-path="url(#a)"><path fill="#1A1C1F" fill-rule="evenodd" d="M10.703 1.6c.719 0 1.297.593 1.297 1.311V13.09c0 .718-.578 1.311-1.297 1.311H5.297A1.306 1.306 0 0 1 4 13.089V2.91C4 2.193 4.578 1.6 5.297 1.6zM6.404 3.2h-.81v9.6h4.8V3.2h-.81v.812h-3.18zm.792 8.804v-1.6h1.6v1.6z" clip-rule="evenodd"/></g><defs><clipPath id="a"><path fill="#fff" d="M0 0h16v16H0z"/></clipPath></defs></svg>
